frontend/public/svg/e-commerce/shop.svg

<svg width="177" height="142" viewBox="0 0 177 142" fill="none" xmlns="http://www.w3.org/2000/svg">
<path d="M13.9434 68.9343C12.0295 68.3318 10.3861 67.9458 8.849 67.3059C4.76458 65.606 2.24753 62.8059 1.30109 58.2043C0.24908 53.4623 0.896735 48.5013 3.13093 44.1882C9.12394 32.239 15.5626 20.56 24.2735 10.3087C28.1814 5.70905 32.806 2.83035 39.1967 2.47396C62.8479 1.06047 86.5568 0.888302 110.226 1.95767C116.16 2.24842 122.07 2.99391 127.997 3.45269C130.34 3.63384 132.702 3.69616 135.052 3.64562C138.387 3.57408 141.549 4.10965 144.376 5.94281C146.349 7.22266 148.455 8.39367 150.152 9.98529C160.582 19.7647 168.934 31.0535 174.542 44.2774C176.238 48.2758 176.15 52.3419 175.095 56.4709C173.336 63.3559 169.082 67.5632 162.011 68.8017C161.68 68.8667 161.354 68.954 161.035 69.0642C160.823 69.1299 160.625 69.2401 160.101 69.4698C159.851 74.3169 159.616 79.328 159.33 84.3359C158.689 95.5383 158.196 106.752 157.28 117.932C156.926 122.244 155.763 126.522 154.643 130.73C153.653 134.448 150.981 136.806 147.348 138.06C142.264 139.869 136.908 140.793 131.511 140.791C107.149 140.616 82.7875 140.441 58.4261 140.266C49.7822 140.207 41.1348 140.295 32.4948 140.079C29.1326 140.001 25.7892 139.552 22.5251 138.742C16.1068 137.123 12.0118 132.95 11.7421 126.197C11.3483 116.344 11.1298 106.458 11.4737 96.6088C11.7671 88.2175 12.9609 79.8584 13.7524 71.4841C13.822 70.7156 13.8706 69.9391 13.9434 68.9343ZM97.5157 133.039C97.6601 132.665 97.7651 132.276 97.8301 131.88C98.0513 121.116 98.3059 110.352 98.4379 99.5846C98.4812 96.0771 98.7194 92.6589 100.039 89.3582C101.713 85.1721 104.714 82.8834 109.237 82.701C113.948 82.5106 118.661 82.2875 123.374 82.2415C126.175 82.2054 128.974 82.359 131.754 82.701C133.287 82.8184 134.738 83.4446 135.875 84.4803C137.011 85.5166 137.77 86.9028 138.029 88.419C138.581 90.9341 138.906 93.4931 139.001 96.0666C139.364 107.923 139.603 119.784 139.89 131.827C140.62 131.667 141.561 131.402 142.52 131.265C145.357 130.858 146.84 129.209 147.23 126.417C147.649 123.422 148.393 120.452 148.554 117.446C149.327 102.99 149.963 88.5266 150.615 74.0622C150.711 71.9495 150.629 69.8289 150.629 68.3127L141.069 60.1532C138.406 64.3137 134.456 67.1162 128.916 67.3131C123.456 67.51 118.959 65.4095 115.253 61.5982C106.817 69.504 96.3376 69.2349 88.01 60.9355C84.641 66.1954 79.5498 68.1552 73.6001 67.9583C67.8755 67.768 62.6227 66.0706 58.4425 61.7151C54.8044 66.1336 50.4148 68.5254 44.9147 68.6724C39.631 68.8516 34.468 67.069 30.4201 63.6685C29.3274 65.2438 27.8865 66.5465 26.2093 67.4752C24.5321 68.404 22.6635 68.9336 20.7484 69.0242C20.6184 69.4285 20.5209 69.8433 20.457 70.2634C20.0691 80.581 19.5203 90.8973 19.372 101.219C19.2624 108.842 19.5571 116.479 19.8971 124.099C20.1314 129.311 22.0919 131.384 27.3137 131.865C33.0042 132.39 38.7294 132.647 44.4442 132.763C54.2078 132.96 63.9754 132.983 73.7418 133.032C81.5989 133.07 89.4487 133.039 97.5157 133.039ZM129.248 90.665C123.144 90.8842 117.672 91.0187 112.209 91.2977C108.323 91.4946 107.885 91.937 107.071 95.6354C106.904 96.5143 106.811 97.4062 106.794 98.3015C106.309 108.704 106.17 119.132 104.329 129.43C104.216 130.586 104.207 131.75 104.301 132.908H129.248V90.665ZM68.8928 10.8227C67.7915 16.9437 66.7269 22.6564 65.7423 28.3823C64.5083 35.5469 63.4629 42.7461 62.0898 49.8831C61.3285 53.8396 62.5559 57.5868 66.2248 59.0885C68.7084 60.0754 71.341 60.6342 74.0109 60.7413C77.6635 60.904 80.3393 59.0582 81.9979 55.6518C83.4143 52.7435 84.2951 49.8556 83.5403 46.5976C83.2732 45.3934 83.1504 44.162 83.1734 42.9288C83.287 33.7473 83.453 24.5666 83.5941 15.3857C83.6171 13.8709 83.5974 12.3553 83.5974 10.8227H68.8928ZM129.461 11.9325C131.458 16.7172 133.301 21.0359 135.067 25.3874C137.883 32.3216 140.646 39.2777 143.44 46.2198C143.605 46.6294 143.768 47.1976 144.097 47.3578C146.36 48.4624 146.883 50.7407 147.877 52.7149C150.256 57.4405 153.959 60.0971 159.406 59.8884C164.78 59.6823 168.128 54.492 166.304 49.4047C163.755 42.5721 160.224 36.1474 155.823 30.3324C151.169 23.9955 146.275 17.9039 139.765 13.2577C136.591 10.9907 133.413 11.0917 129.461 11.9325ZM61.7216 11.1448H49.8562C49.4591 12.1083 49.1435 12.812 48.8757 13.5327C43.8403 27.0762 38.8338 40.6316 33.7445 54.1548C33.4715 54.707 33.4087 55.3399 33.5679 55.935C33.727 56.5302 34.0973 57.0468 34.6096 57.389C38.4413 60.567 42.827 61.5636 47.5007 59.949C49.1524 59.3109 50.5215 58.1031 51.3607 56.5439C52.6609 53.8191 53.6316 50.9488 54.2523 47.9943C56.776 36.5084 59.1297 24.9805 61.526 13.4644C61.6384 12.6968 61.7039 11.9233 61.7216 11.1477V11.1448ZM90.8217 11.2592C90.722 11.4821 90.653 11.7174 90.6163 11.9588C90.8657 24.2901 90.9484 36.6285 91.4695 48.9487C91.6914 54.221 95.2428 59.3254 102.348 58.5713C107.764 57.9963 111.626 51.9683 109.865 46.8069C108.606 43.1143 107.658 39.3084 106.705 35.5181C104.689 27.5048 102.762 19.4687 100.753 11.2579L90.8217 11.2592ZM42.7941 11.4396C40.9741 11.6162 39.5413 11.8275 38.1026 11.8787C35.0973 11.9844 32.9772 13.282 31.0594 15.7046C22.7292 26.2276 16.429 37.9779 10.1084 49.7165C9.18052 51.6316 8.51965 53.6648 8.14409 55.7594C7.62821 58.1104 8.18544 59.1258 10.3586 60.0256C13.4678 61.3602 16.8903 61.7907 20.2331 61.2675C22.4167 60.9183 23.4906 59.6056 24.1896 57.6576C26.2971 51.7716 28.3134 45.8436 30.6722 40.0586C34.5144 30.633 38.5995 21.3076 42.7941 11.4422V11.4396ZM108.213 11.3018C108.168 11.7104 108.171 12.1227 108.223 12.5306C113.571 25.6363 116.631 39.4218 120.238 53.0421C120.445 53.9168 120.856 54.7301 121.438 55.4152C122.02 56.1003 122.756 56.638 123.585 56.9837C127.064 58.5189 130.839 58.579 133.248 54.5176C134.276 52.7848 135.948 51.4198 134.548 48.8239C128.998 38.5345 125.276 27.5194 122.227 16.2625C121.852 14.8783 121.338 13.5312 120.862 12.0879L108.213 11.3018Z" fill="black"/>
<path d="M58.8208 76.022C66.2442 76.4538 73.5315 76.7558 80.7959 77.3386C86.8998 77.8289 89.6282 80.3965 89.8232 86.5024C90.0247 93.1097 89.8428 99.723 89.2791 106.309C88.8131 111.815 86.1746 114.626 80.0083 114.617C68.3452 114.599 56.6811 115.033 45.016 115.158C42.3247 115.152 39.6389 114.916 36.9876 114.453C31.141 113.508 28.0949 110.128 28.1067 104.059C28.1185 98.0113 28.4802 91.9506 28.9875 85.9215C29.1416 83.7188 30.0808 81.6448 31.6345 80.0762C33.1883 78.5075 35.2534 77.5486 37.4544 77.3734C44.6019 76.7341 51.7789 76.4492 58.8208 76.022ZM80.9954 106.748C82.5385 100.3 82.8876 93.6236 82.0272 87.0491C81.9517 86.4203 81.0092 85.6603 80.3056 85.3978C79.2364 85.0532 78.1193 84.8806 76.997 84.8884C70.6003 84.683 64.2014 84.408 57.8028 84.3982C52.4169 84.3903 47.0251 84.6193 41.6451 84.9127C36.0518 85.2179 34.787 86.6422 34.9097 92.185C34.9793 95.3262 35.1598 98.4668 35.3475 101.604C35.6166 106.107 36.0399 106.834 40.4315 106.953C51.5335 107.253 62.6426 107.302 73.7494 107.358C76.0834 107.37 78.4199 106.976 80.9954 106.748Z" fill="black"/>
</svg>

<svg xmlns="http://www.w3.org/2000/svg" width="177" height="142" fill="none" viewBox="0 0 177 142"><path fill="#000" d="M13.943 68.934c-1.913-.602-3.557-.988-5.094-1.628-4.084-1.7-6.601-4.5-7.548-9.102a20.72 20.72 0 0 1 1.83-14.016C9.124 32.24 15.563 20.56 24.274 10.308 28.18 5.71 32.805 2.83 39.197 2.475a678 678 0 0 1 71.029-.516c5.934.29 11.844 1.036 17.771 1.495 2.343.18 4.705.243 7.055.193 3.335-.072 6.497.464 9.324 2.297 1.973 1.28 4.079 2.45 5.776 4.042 10.43 9.78 18.782 21.069 24.39 34.292 1.696 3.999 1.608 8.065.553 12.194-1.759 6.885-6.013 11.092-13.084 12.33a7 7 0 0 0-.976.263c-.212.066-.41.176-.934.406-.25 4.847-.485 9.858-.771 14.866-.641 11.202-1.134 22.416-2.05 33.596-.354 4.312-1.517 8.59-2.637 12.798-.99 3.718-3.662 6.076-7.295 7.33a47.2 47.2 0 0 1-15.837 2.731l-73.085-.525c-8.644-.059-17.291.029-25.931-.187a45.8 45.8 0 0 1-9.97-1.337c-6.418-1.619-10.513-5.792-10.783-12.545-.394-9.853-.612-19.739-.268-29.588.293-8.391 1.487-16.75 2.278-25.125.07-.768.119-1.545.191-2.55m83.573 64.105a6 6 0 0 0 .314-1.159c.221-10.764.476-21.528.608-32.295.043-3.508.281-6.926 1.601-10.227 1.674-4.186 4.675-6.475 9.198-6.657 4.711-.19 9.424-.413 14.137-.46 2.801-.036 5.6.118 8.38.46a6.9 6.9 0 0 1 6.275 5.718c.552 2.515.877 5.074.972 7.648.363 11.856.602 23.717.889 35.76.73-.16 1.671-.425 2.63-.562 2.837-.407 4.32-2.056 4.71-4.848.419-2.995 1.163-5.965 1.324-8.971.773-14.456 1.409-28.92 2.061-43.384.096-2.112.014-4.233.014-5.75l-9.56-8.159c-2.663 4.16-6.613 6.963-12.153 7.16-5.46.197-9.957-1.904-13.663-5.715-8.436 7.906-18.915 7.637-27.243-.663-3.369 5.26-8.46 7.22-14.41 7.023-5.724-.19-10.977-1.887-15.157-6.243-3.639 4.419-8.028 6.81-13.528 6.957A21.4 21.4 0 0 1 30.42 63.67a12.49 12.49 0 0 1-9.672 5.355q-.195.608-.291 1.24c-.388 10.317-.937 20.633-1.085 30.955-.11 7.623.185 15.26.525 22.88.234 5.212 2.195 7.285 7.417 7.766 5.69.525 11.415.782 17.13.898 9.764.197 19.531.22 29.298.269 7.857.038 15.707.007 23.774.007m31.732-42.374c-6.104.22-11.576.354-17.039.633-3.886.197-4.324.639-5.138 4.337a16 16 0 0 0-.277 2.666c-.485 10.403-.624 20.831-2.465 31.129a19.5 19.5 0 0 0-.028 3.478h24.947zM68.893 10.823c-1.102 6.12-2.166 11.833-3.15 17.56-1.235 7.164-2.28 14.363-3.653 21.5-.762 3.957.466 7.704 4.135 9.206a23.7 23.7 0 0 0 7.786 1.652c3.653.163 6.328-1.683 7.987-5.09 1.416-2.908 2.297-5.795 1.542-9.053a15.6 15.6 0 0 1-.367-3.67c.114-9.18.28-18.361.421-27.542.023-1.515.003-3.03.003-4.563zm60.568 1.11c1.997 4.784 3.84 9.103 5.606 13.454 2.816 6.935 5.579 13.89 8.373 20.833.165.41.328.978.657 1.138 2.263 1.104 2.786 3.383 3.78 5.357 2.379 4.725 6.082 7.382 11.529 7.173 5.374-.206 8.722-5.396 6.898-10.483a75.1 75.1 0 0 0-10.481-19.073c-4.654-6.337-9.548-12.428-16.058-17.074-3.174-2.267-6.352-2.166-10.304-1.325m-67.74-.788H49.857c-.397.963-.712 1.667-.98 2.388-5.036 13.543-10.042 27.099-15.131 40.622a2.54 2.54 0 0 0 .865 3.234c3.831 3.178 8.217 4.175 12.89 2.56a7.42 7.42 0 0 0 3.86-3.405 38 38 0 0 0 2.892-8.55c2.524-11.486 4.878-23.013 7.274-34.53q.168-1.151.196-2.316zm29.1.114q-.149.336-.205.7c.25 12.331.332 24.67.853 36.99.222 5.272 3.774 10.376 10.879 9.622 5.416-.575 9.278-6.603 7.517-11.764-1.259-3.693-2.207-7.499-3.16-11.289-2.016-8.013-3.943-16.05-5.952-24.26zm-48.027.18c-1.82.177-3.253.389-4.691.44-3.006.105-5.126 1.403-7.044 3.826-8.33 10.523-14.63 22.273-20.95 34.012a23.3 23.3 0 0 0-1.965 6.042c-.516 2.351.041 3.367 2.215 4.267a18 18 0 0 0 9.874 1.241c2.184-.349 3.258-1.661 3.957-3.61 2.107-5.885 4.123-11.813 6.482-17.598 3.842-9.426 7.927-18.751 12.122-28.617zm65.419-.137q-.068.614.01 1.229c5.348 13.105 8.408 26.89 12.015 40.511a5.69 5.69 0 0 0 3.347 3.942c3.479 1.535 7.254 1.595 9.663-2.466 1.028-1.733 2.7-3.098 1.3-5.694-5.55-10.29-9.272-21.305-12.321-32.562-.375-1.384-.889-2.73-1.365-4.174z"/><path fill="#000" d="M58.82 76.022c7.424.432 14.711.734 21.976 1.317 6.104.49 8.832 3.058 9.027 9.163.202 6.608.02 13.221-.544 19.807-.466 5.506-3.104 8.317-9.27 8.308-11.664-.018-23.328.416-34.993.541a47.3 47.3 0 0 1-8.028-.705c-5.847-.945-8.893-4.325-8.881-10.394.012-6.048.373-12.108.88-18.138a9.22 9.22 0 0 1 8.467-8.548c7.148-.639 14.325-.924 21.367-1.351m22.175 30.726a54.3 54.3 0 0 0 1.032-19.699c-.075-.629-1.018-1.389-1.721-1.651a10.6 10.6 0 0 0-3.309-.51c-6.397-.205-12.796-.48-19.194-.49-5.386-.008-10.778.221-16.158.515-5.593.305-6.858 1.73-6.735 7.272.07 3.141.25 6.282.438 9.419.269 4.503.692 5.23 5.084 5.349 11.101.3 22.21.349 33.317.405 2.334.012 4.67-.382 7.246-.61"/></svg>
